X: 145
T: Wuyun dali Ogjuntaraj                              (Name)
L: 1/8
M: 2/4
K: C
D D D G, [I:setbarnb 1]| 
G2E G | 
D4 | 
D D D G, | 
G2E G | 
D4 | 
D2D2 | 
G2A2 | 
C2D2 | 
A, G,E,2 | 
G,G,2D | 
D C A, D | 
G,4 |]

@@@ Tune index: 8813
